!!!COM: Scriabin, Alexander
!!!OTL: Etude
!!!OPR: 12 Etudes
!!!OPS: 8
!!!ONM: 5
!!!ODT: 1894
!!!AGN: Etude
**kern	**kern	**dynam
*staff2	*staff1	*staff1
*Ipiano	*Ipiano	*Ipiano
*clefF4	*clefG2	*clefG2
*k[f#c#g#d#]	*k[f#c#g#d#]	*k[f#c#g#d#]
*met(C)	*met(C)	*met(C)
*M4/4	*M4/4	*M4/4
*MM144	*MM144	*MM144
=1-	=1-	=1-
*	*^	*
4EE/ 4BB/	8c#\L	4e/ 4g#/	mf
.	8B\J	.	.
*clefG2	*	*	*
4B/ 4e/ 4b/	8a^\ (8aa^\L	4ee/	.
.	8g#\ 8gg#\J)	.	.
*clefF4	*	*	*
4BBB/ 4BB/	8B\L	4d#/ 4g#/	.
.	8A\J	.	.
*clefG2	*	*	*
4A/ 4d#/ 4b/	8g#^\ (8gg#^\L	4dd#/	.
.	8f#\ 8ff#\J)	.	.
*clefF4	*	*	*
*	*v	*v	*
=2	=2	=2
4EE/ 4BB/	8G#/ 8e/ 8g#/	.
.	8e/ 8ee/	.
4BB\ 4G#\ 4e\	8g#/ 8gg#/L	.
.	8d#/ 8dd#/J	.
4AA#\ 4G#\ 4e\	8g#/ 8gg#/L	.
.	8c#/ 8cc#/J	.
4r	8d#/ 8dd#/L	.
.	8e/ 8ee/J	.
=3	=3	=3
*	*^	*
4BBB/ 4BB/	4r	8g#/ 8gg#/L	.
.	.	8B/ 8b/J	.
4G#\ 4e\ 4g#\	4r	8b\ 8ee\ 8bb\	.
.	.	8B/ 8b/	.
4BB\ 4A\ 4d#\	4dd#\	8g#/ 8gg#/L	.
.	.	8f#/ 8ff#/J	.
4A\ 4d#\ 4f#\	4r	8b\ 8ff#\ 8bb\	.
.	.	8B/ 8b/	.
=4	=4	=4	=4
4EE/ 4BB/ 4G#/	8f#/ 8ff#/L	4b\	.
.	8e/ 8ee/J	.	.
8G#\ 8e\ 8g#\	4r	8b\ 8ee\ 8bb\	.
8A#\	.	8r	.
8c#\L	4r	4r	.
8B\J	.	.	.
8e\	4r	8r	.
8r	.	8e/	.
=5	=5	=5	=5
4GG#/ 4D#/	4g#/ 4b/	8e\L	.
.	.	8d#\J	.
*clefG2	*	*	*
4B/ 4g#/ 4b/	4gg#/ 4bb/	8ee\ 8eee\L	.
.	.	8dd#\ 8ddd#\J	.
*clefF4	*	*	*
4DD#/ 4D#/	4f##/ 4cc#/	8c#\L	.
.	.	8A#\J	.
*clefG2	*	*	*
4A#/ 4f##/ 4cc#/	4ff##/ 4ccc#/	8ee\ 8eee\L	.
.	.	8dd#\ 8ddd#\J	.
*clefF4	*	*	*
*	*v	*v	*
=6	=6	=6
4EE/ 4E/	8B/ 8d#/ 8g#/ 8b/	.
.	8b\ 8bb\	.
4B\ 4d#\ 4g#\	8dd#\ 8ddd#\L	.
.	8a#\ 8aa#\J	.
4EE#/ 4E#/	8dd#\ 8ddd#\L	.
.	8g#\ 8gg#\J	.
4B\ 4d#\ 4g#\	8a#\ 8aa#\L	.
.	8b\ 8bb\J	.
=7	=7	=7
*	*^	*
4FF#/ 4F#/	4r	8dd#\ 8ddd#\L	.
.	.	8f#\ 8ff#\J	.
*clefG2	*	*	*
4d#/ 4b/ 4dd#/	4r	8ff#\ 8bb\ 8fff#\	.
.	.	8F#/ 8f#/	.
*clefF4	*	*	*
4FF#/ 4E/ 4A#/	4a#\	8d#/ 8dd#/L	.
.	.	8c#/ 8cc#/J	.
*clefG2	*	*	*
4e/ 4a#/ 4cc#/	4r	8ff#\ 8ccc#\ 8fff#\	.
.	.	8F#/ 8f#/	.
*clefF4	*	*	*
=8	=8	=8	=8
4BBB/ 4FF#/ 4D#/	4f#\	8c#/ 8cc#/L	.
.	.	8B/ 8b/J	.
*clefG2	*	*	*
8d#/ 8b/ 8dd#/	8ff#\ 8bb\ 8fff#\	4r	.
*clefF4	*	*	*
8E#\	4r	.	.
8G#\L	.	8r	.
8F#\J	4r	4r	.
8B\	.	.	.
8r	8B\	8r	.
=9	=9	=9	=9
4GGG#/ 4GG#/	8B\L	4dn/ 4f#/	.
.	8F#\J	.	.
*clefG2	*	*	*
4G#/ 4dn/ 4f#/ 4ddn/	8cc#\ 8ccc#\L	4ff#/	.
.	8b\ 8bb\J	.	.
*clefF4	*	*	*
4CC#/ 4C#/	8a\ 8aa\L	4cc#/ 4ee#/	.
.	8g#\ 8gg#\J	.	.
4B\ 4e#\	4g#\	8d/ 8ddn/L	.
.	.	8d/ 8dd/J	.
=10	=10	=10	=10
4A\ 4f#\	4a\	8dn/ 8ddn/L	.
.	.	8c#/ 8cc#/J	.
8Dn\L	4r	4r	.
8D\J	.	.	.
8D/L	4r	4r	.
8C#/J	.	.	.
8A\	4r	8r	.
8r	.	8A\	.
=11	=11	=11	=11
4FFF#/ 4FF#/	8A\L	4cn/ 4e/	.
.	8E\J	.	.
4A\ 4e\	8b\ 8bb\L	4ee/	.
.	8a\ 8aa\J	.	.
4Cn/	8g#\ 8gg#\L	4ee/	.
.	8f#\ 8ff#\J	.	.
4F#\ 4e\	8g#\ 8gg#\L	4ee/	.
.	8a\ 8aa\J	.	.
=12	=12	=12	=12
4BB\ 4A\ 4d#\	4dd#/	8g#\ 8gg#\L	.
.	.	8f#\ 8ff#\J	p
8c#\L	4r	4r	.
8c#\J	.	.	.
8c#\L	4r	4r	.
8B\J	.	.	.
8b\	4r	8r	.
8r	.	8c#\	.
=13	=13	=13	=13
4EE/ 4BB/	4e/ 4g#/	8c#\L	p
.	.	8B\J	.
*clefG2	*	*	*
4B/ 4e/ 4b/	4ee/	8a\ 8aa\L	.
.	.	8g#\ 8gg#\J	.
*clefF4	*	*	*
4BBB/ 4BB/	4d#/	8B\ 8g#\L	.
.	.	8A\J	.
*clefG2	*	*	*
4A/ 4d#/ 4b/	4dd#/	8g#\ 8gg#\L	.
.	.	8f#\ 8ff#\J	.
*clefF4	*	*	*
*	*v	*v	*
=14	=14	=14
4EE/ 4BB/	8G#/ 8e/ 8g#/	.
.	8e/ 8ee/	.
4BB\ 4G#\ 4e\	8g#/ 8gg#/L	.
.	8d#/ 8dd#/J	.
4AA#\ 4G#\ 4e\	8g#/ 8gg#/L	.
.	8c#/ 8cc#/J	.
4r	8d#/ 8dd#/L	.
.	8e/ 8ee/J	.
=15	=15	=15
*	*^	*
4BBB/ 4BB/	8g#/ 8gg#/L	4r	.
.	8B/ 8b/J	.	.
4G#\ 4e\ 4g#\	4r	8b\ 8ee\ 8bb\	.
.	.	4dd#\	.
4BB\ 4A\ 4d#\	8B/ 8b/	.	.
.	8g#/ 8gg#/L	4r	.
4A\ 4d#\ 4f#\	8f#/ 8ff#/J	.	.
.	8b/ 8ff#/ 8bb/	8B/ 8b/	.
=16	=16	=16	=16
4EE/ 4BB/ 4G#/	8f#/ 8ff#/L	4b\	.
.	8e/ 8ee/J	.	.
8G#\ 8e\ 8g#\	4r	8b\ 8ee\ 8bb\	.
8A#\	.	8r	.
8c#\L	4r	4r	.
8B\J	.	.	.
8e\	4r	4r	.
8FF##/ 8F##/	.	.	.
=17	=17	=17	=17
*^	*	*	*
4r	8AA\ 8A\L	4r	4r	.
.	8GG#\ 8G#\J	.	.	.
2.G#/	8.E\ 8.e\L	2.g#\	2c#/ (2cc#/	.
.	16E\ 16e\Jk	.	.	.
.	8E\ 8e\L	.	.	.
.	8D#\ 8d#\	.	.	.
.	8C#\ 8c#\	.	4e/ 4ee/)	.
.	8BB\ 8B\J	.	.	.
=18	=18	=18	=18	=18
4r	8AA\ 8A\L	4r	4r	.
.	8GG#\ 8G#\J	.	.	.
8.G#\ 8.g#\L	2.c#/	2.cc#\	2e/ (2ee/	.
16G#\ 16g#\Jk	.	.	.	.
8G#\ 8g#\L	.	.	.	.
8F#\ 8f#\	.	.	.	.
8E\ 8e\	.	.	4g#/ 4gg#/)	.
8D#\ 8d#\J	.	.	.	.
*	*	*v	*v	*
=19	=19	=19	=19
8E\ 8e\L	4r	4r	.
8C#\ 8c#\J	.	.	.
*v	*v	*	*
*clefG2	*	*
*^	*	*
2.g#\	8.e/ 8.ee/L	2cc#\ 2gg#\ (2ccc#\	.
.	16e/ 16ee/Jk	.	.
.	8e/ 8ee/L	.	.
.	8d#/ 8dd#/	.	.
.	8c#/ 8cc#/	4ee\ 4gg#\ 4eee\)	.
.	8B/ 8b/J	.	.
*v	*v	*	*
=20	=20	=20
8.D#/ 8.d#/L	4r	.
16B/ 16b/Jk	.	.
8B/ 8b/L	2cc#^\ 2gg#^\ 2eee^\	.
8A#/ 8a#/J	.	.
8D#/ 8d#/L	.	.
8B/ 8b/J	.	.
8A#/ 8a#/	4cc#^\ 4ff##^\ 4ddd#^\	.
*clefF4	*	*
8CC##/ 8C##/	.	.
=21	=21	=21
*^	*^	*
4r	8EE/ 8E/L	4r	4r	.
.	8DD#/ 8D#/J	.	.	.
8.BB\ 8.B\L	2.D#/	2.d#\	2G#/ (2g#/	.
16BB\ 16B\Jk	.	.	.	.
8BB\ 8B\L	.	.	.	.
8AA#\ 8A#\J	.	.	.	.
8GG#/ 8G#/L	.	.	4B/ 4b/)	.
8FF#/ 8F#/J	.	.	.	.
=22	=22	=22	=22	=22
4r	8EE/ 8E/L	4r	4r	.
.	8DD#/ 8D#/J	.	.	.
2.G#/	8.D#\ 8.d#\L	2.g#\	2B/ (2b/	.
.	16D#\ 16d#\Jk	.	.	.
.	8D#\ 8d#\L	.	.	.
.	8C#\ 8c#\	.	.	.
.	8BB\ 8B\	.	4d#/ 4dd#/)	.
.	8AA#\ 8A#\J	.	.	.
*	*	*v	*v	*
=23	=23	=23	=23
4r	8BB\ 8B\L	4r	.
.	8GG#\ 8G#\J	.	.
8.B\ 8.b\L	2.d#/	2g#\ 2dd#\ (2gg#\	.
16B\ 16b\Jk	.	.	.
8B\ 8b\L	.	.	.
8A#\ 8a#\	.	.	.
8G#\ 8g#\	.	4b\ 4dd#\ 4ff#\ 4bb\)	.
8F#\ 8f#\J	.	.	.
*v	*v	*	*
=24	=24	=24
8.GG#\ 8.G#\L	4r	.
16F#\ 16f#\Jk	.	.
8F#\ 8f#\L	2b\ 2ff#\ 2bb\	.
8Dn\ 8dn\J	.	.
8CC#/ 8C#/L	.	.
8GG#/ 8G#/	.	.
8D/ 8d/	4e#/ 4b/ 4ee#/	.
8C#/ 8c#/J	.	.
=25	=25	=25
*k[f#c#g#]	*k[f#c#g#]	*k[f#c#g#]
*	*^	*
4FFF#/ 4FF#/	4r	8en/ (8een/L	ff
.	.	8dn/ 8ddn/J	.
4Dn\ 4B\ 4dn\	4dd/	8.a\ 8.aa\L	.
.	.	16a\ 16aa\Jk	.
4F#\ 4d\ 4f#\	4dd/	8a\ 8aa\L	.
.	.	8g\ 8gg\	.
4B\ 4d\ 4g#\ 4b\	4dd/	8f#\ 8ff#\	.
.	.	8e#\ 8ee#\J)	.
=26	=26	=26	=26
4FFF#/ 4FF#/	8r	4r	.
.	8en/ (8een/	.	.
4Dn\ 4B\	8e/ 8ee/L	4f#\	.
.	8dn/ 8ddn/J)	.	.
4FFF#/ 4FF#/	8r	4r	.
.	8A/ (8a/	.	.
4D\ 4B\	8A/ 8a/L	4d\	.
.	8G/ 8g/J	.	.
=27	=27	=27	=27
4FFF#/ 4FF#/	4r	8e/ (8ee/L)	.
.	.	8dn/ 8ddn/J	.
4Dn\ 4F#\ 4B\ 4dn\	4ff#/	8.cc#\ 8.ccc#\L	.
.	.	16cc#\ 16ccc#\Jk	.
4F#\ 4B\ 4f#\	4ff#/	8cc#\ 8ccc#\L	.
.	.	8b\ 8bb\	.
4B\ 4f#\ 4b\	4ff#/	8a\ 8aa\	.
.	.	8g\ 8gg\J)	.
=28	=28	=28	=28
4FFF#/ 4FF#/	4r	8r	.
.	.	8a\ (8aa\	.
4Dn\ 4F#\ 4B#\ 4dn\	4ddn/	8a\ 8aa\L	.
.	.	8f#\ 8ff#\J)	.
4FFF#/ 4FF#/	4r	8r	.
.	.	8a\ (8aa\	.
4D\ 4F#\ 4B#\ 4d\	4dd/	8a\ 8aa\L	.
.	.	8f#\ 8ff#\J)	.
*	*v	*v	*
=29	=29	=29
*k[f#c#g#d#]	*k[f#c#g#d#]	*k[f#c#g#d#]
*	*^	*
4FFF#/ 4FF#/	4r	8r	.
.	.	8a\ (8aa\	.
4C#\ 4F#\ 4c#\	4cc#/	8a\ 8aa\L	.
.	.	8f#\ 8ff#\J)	.
8r	4r	4f#\ 4ff#\	.
8AA\ 8A\	.	.	.
8AA/ 8A/L	4r	4r	.
8FF#/ 8F#/J	.	.	.
=30	=30	=30	=30
4CC#/ 4C#/	4r	8r	.
.	.	8a\ 8aa\	.
4F#\ 4e\	4ee/	8a\ 8aa\L	.
.	.	8f#\ 8ff#\J	.
8r	4r	4f#\ 4ff#\	.
8AA\ 8A\	.	.	.
8AA/ 8A/L	4r	4r	.
8FF#/ 8F#/J	.	.	.
=31	=31	=31	=31
4BBB/ 4BB/	4r	8r	.
.	.	8cc#\ 8ccc#\	.
4F#\ 4A\ 4d#\ 4a\	4dd#/	8cc#\ 8ccc#\L	.
.	.	8f#\ 8ff#\J	.
8r	4r	8f#\ 8ff#\	.
8a\	.	8r	.
8a\L	4r	4r	.
8d#\J	.	.	.
=32	=32	=32	=32
8d#\	12r	2r	.
.	12aa/L	.	.
8r	.	.	.
.	12aa/J	.	.
4r	12aa/L	.	.
.	12cc#/	.	.
.	12cc#/J	.	.
2BB\ 2A\	12cc#/L	4.d#\	.
.	12ccn/	.	.
.	12cc/J	.	.
.	12cc/L	.	.
.	12b/J	.	.
.	.	8c#\	.
.	12r	.	.
=33	=33	=33	=33
4EE/ 4BB/	12c#\L	4e/ 4g#/	mf
.	12c#\	.	.
.	12B\J	.	.
*clefG2	*	*	*
4B/ 4e/ 4b/	12a^\ 12aa^\L	4ee/	.
.	12a\ 12aa\	.	.
.	12g#\ 12gg#\J	.	.
*clefF4	*	*	*
4BBB/ 4BB/	12B\L	4d#/ 4g#/	.
.	12B\	.	.
.	12A\J	.	.
*clefG2	*	*	*
4A/ 4d#/ 4b/	12g#^\ 12gg#^\L	4dd#/	.
.	12g#\ 12gg#\	.	.
.	12f#\ 12ff#\J	.	.
*clefF4	*	*	*
*	*v	*v	*
=34	=34	=34
4EE/ 4BB/	12G#/ 12e/ 12g#/	.
.	12e/ 12ee/L	.
.	12e/ 12ee/J	.
4BB\ 4G#\ 4e\	12g#/ 12gg#/L	.
.	12d#/ 12dd#/	.
.	12d#/ 12dd#/J	.
4AA#\ 4G#\ 4e\	12g#/ 12gg#/L	.
.	12c#/ 12cc#/	.
.	12c#/ 12cc#/J	.
4r	12c#/ 12cc#/L	.
.	12d#/ 12dd#/	.
.	12e/ 12ee/J	.
=35	=35	=35
*	*^	*
4BBB/ 4BB/	12g#/ 12gg#/L	4r	.
.	12A#/ 12a#/	.	.
.	12B/ 12b/J	.	.
4G#\ 4e\ 4g#\	4r	12b/ 12ee/ 12bb/L	.
.	.	12B#/ 12b#/	.
.	.	12c#/ 12cc#/J	.
4BB\ [4An\ 4e\	4cc#/	12g#\ 12gg#\L	.
.	.	12e#\ 12ee#\	.
.	.	12f#\ 12ff#\J	.
4A\] 4d#\	12bn/ 12bbn/L	4r	.
.	12A#/ 12a#/	.	.
.	12Bn/ 12bn/J	.	.
=36	=36	=36	=36
4EE/ 4BB/ 4G#/	12f#/ 12ff#/L	4b\	.
.	12d#/ 12dd#/	.	.
.	12e/ 12ee/J	.	.
12G#\ 12e\ 12g#\	8ee/	8b\ 8bb\	.
12A#\L	.	.	.
.	8r	8r	.
12c#\J	.	.	.
12B\L	4r	4r	.
12e\	.	.	.
12b\J	.	.	.
4r	4ee/	12g#\	.
.	.	12c##\L	.
.	.	12d#\J	.
=37	=37	=37	=37
4GG#/ 4D#/	4g#/ 4b/	12e\L	.
.	.	12e\	.
.	.	12d#\J	.
*clefG2	*	*	*
4B/ 4g#/ 4b/	4gg#/ 4bb/	12ee^\ 12eee^\L	.
.	.	12ee\ 12eee\	.
.	.	12dd#\ 12ddd#\J	.
*clefF4	*	*	*
4DD#/ 4D#/	4f##/ 4cc#/	12c#\L	.
.	.	12c#\	.
.	.	12A#\J	.
*clefG2	*	*	*
4A#/ 4f##/ 4cc#/	4ff##/ 4ccc#/	12ee^\ 12eee^\L	.
.	.	12ee\ 12eee\	.
.	.	12dd#\ 12ddd#\J	.
*clefF4	*	*	*
*	*v	*v	*
=38	=38	=38
4EE/ 4E/	12B/ 12d#/ 12g#/ 12b/	.
.	12b\ 12bb\L	.
.	12b\ 12bb\J	.
4B\ 4d#\ 4g#\	12dd#\ 12ddd#\L	.
.	12a#\ 12aa#\	.
.	12a#\ 12aa#\J	.
4EE#/ 4E#/	12dd#\ 12ddd#\L	.
.	12g#\ 12gg#\	.
.	12g#\ 12gg#\J	.
4B\ 4d#\ 4g#\	12g#\ 12gg#\L	.
.	12a#\ 12aa#\	.
.	12b\ 12bb\J	.
=39	=39	=39
*	*^	*
4FF#/ 4F#/	4r	12dd#\ 12ddd#\L	.
.	.	12e#\ 12ee#\	.
.	.	12f#\ 12ff#\J	.
*clefG2	*	*	*
4d#/ 4b/ 4dd#/	4r	12ff#\ 12bb\ 12fff#\L	.
.	.	12f##\ 12ff##\	.
.	.	12g#\ 12gg#\J	.
*clefF4	*	*	*
4FF#/ 4En/ 4B/	4gg#/	12dd#\ 12ddd#\L	.
.	.	12b#\ 12bb#\	.
.	.	12cc#\ 12ccc#\J	.
*clefG2	*	*	*
4A#/ 4e/ 4f#/ 4cc#/	4ff#/	12fff#\L	.
.	.	12e#\ 12ee#\	.
.	.	12f#\ 12ff#\J	.
*clefF4	*	*	*
=40	=40	=40	=40
4BBB/ 4FF#/ 4D#/	4ff#/	12cc#\ 12ccc#\L	.
.	.	12a#\ 12aa#\	.
.	.	12b\ 12bb\J	.
12F#\ 12d#\ 12b\	8ff#\ 8bb\ 8fff#\	4r	.
12E#\L	.	.	.
.	8r	.	.
12G#\J	.	.	.
12F#\L	4r	4r	.
12B\	.	.	.
12f#\J	.	.	.
4r	4b/	12d#\	.
.	.	12A#\L	.
.	.	12B\J	.
=41	=41	=41	=41
4GGG#/ 4GG#/	12c#\L	4dn/ 4f#/	.
.	12B\	.	.
.	12F#\J	.	.
*clefG2	*	*	*
4G#/ 4dn/ 4f#/ 4ddn/	12cc#\ 12ccc#\L	4ff#/	.
.	12cc#\ 12ccc#\	.	.
.	12b\ 12bb\J	.	.
*clefF4	*	*	*
4CC#/ 4C#/	12a\ 12aa\L	4cc#/ 4ee#/	.
.	12a\ 12aa\	.	.
.	12g#\ 12gg#\J	.	.
4B\ 4e#\	8g#\	12r	.
.	.	12d/ 12ddn/L	.
.	8r	.	.
.	.	12d/ 12dd/J	.
=42	=42	=42	=42
4A\ 4f#\	12dn^/ 12ddn^/L	4a\	.
.	12c#/ 12cc#/	.	.
.	12c#/ 12cc#/J	.	.
12r	4r	8c#/ 8cc#/	.
12Dn\L	.	.	.
.	.	8r	.
12D\J	.	.	.
12D^/L	4r	4r	.
12C#/	.	.	.
12C#/J	.	.	.
8C#/	4r	12r	.
.	.	12G#\L	.
8r	.	.	.
.	.	12A\J	.
=43	=43	=43	=43
4FFF#/ 4FF#/	4cn/ 4e/	12B\L	.
.	.	12A\	.
.	.	12E\J	.
4A\ 4e\	4ee/	12b\ 12bb\L	f
.	.	12b\ 12bb\	.
.	.	12a\ 12aa\J	.
4CCn/ 4Cn/	4ee/	12g#\ 12gg#\L	.
.	.	12g#\ 12gg#\	.
.	.	12f#\ 12ff#\J	.
4F#\ 4e\	4r	12r	.
.	.	12g#\ 12gg#\L	.
.	.	12a\ 12aa\J	.
=44	=44	=44	=44
4BB\ 4A\ 4d#\	4dd#/	12g#\ 12gg#\L	.
.	.	12f#\ 12ff#\	.
.	.	12f#\ 12ff#\J	.
12r	4r	8f#\ 8ff#\	.
12c#\L	.	.	.
.	.	8r	.
12c#\J	.	.	.
12c#\L	4r	4r	.
12B\	.	.	.
12B\J	.	.	.
8B\	4r	12r	.
.	.	12A#\L	p
8r	.	.	.
.	.	12B\J	.
=45	=45	=45	=45
4EE/ 4BB/	12c#\L	4e/ 4g#/	.
.	12c#\	.	.
.	12B\J	.	.
*clefG2	*	*	*
4B/ 4e/ 4b/	12a^\ 12aa^\L	4ee/	.
.	12a\ 12aa\	.	.
.	12g#\ 12gg#\J	.	.
*clefF4	*	*	*
4BBB/ 4BB/	12B\L	4d#/ 4g#/	.
.	12B\	.	.
.	12A\J	.	.
*clefG2	*	*	*
4A/ 4d#/ 4b/	12g#^\ 12gg#^\L	4dd#/	.
.	12g#\ 12gg#\	.	.
.	12f#\ 12ff#\J	.	.
*clefF4	*	*	*
*	*v	*v	*
=46	=46	=46
4EE/ 4BB/	12G#/ 12e/ 12g#/	.
.	12e/ 12ee/L	.
.	12e/ 12ee/J	.
4BB\ 4G#\ 4e\	12g#/ 12gg#/L	.
.	12d#/ 12dd#/	.
.	12d#/ 12dd#/J	.
4AA#\ 4G#\ 4e\	12g#/ 12gg#/L	.
.	12c#/ 12cc#/	.
.	12c#/ 12cc#/J	.
4r	12c#/ 12cc#/L	.
.	12d#/ 12dd#/	.
.	12e/ 12ee/J	.
=47	=47	=47
*	*^	*
4BBB/ 4BB/	4r	12g#/ 12gg#/L	.
.	.	12A#/ 12a#/	.
.	.	12B/ 12b/J	.
4G#\ 4e\ 4g#\	4r	12b/ 12ee/ 12bb/L	.
.	.	12B#/ 12b#/	.
.	.	12c#/ 12cc#/J	.
4BB\ 4E#\ 4c#\	12an/ 12aan/L	4cc#\	.
.	12g#/ 12gg#/	.	.
.	12c#/ 12cc#/J	.	.
4G#\ 4c#\ 4e#\	4r	12cc#\ 12gg#\ 12ccc#\L	.
.	.	12B#\ 12b#\	.
.	.	12c#\ 12cc#\J	.
=48	=48	=48	=48
4BB\ 4F#\ 4c#\	12f#\ 12ff#\L	4cc#/	.
.	12g#\ 12gg#\	.	.
.	12a\ 12aa\J	.	.
4A\ 4f#\ 4a\	12dd#\ 12ddd#\L	4ff#/	.
.	12cc#\ 12ccc#\	.	.
.	12a\ 12aa\J	.	.
4BB\ 4A\ 4d#\	4dd#/	12g#\ 12gg#\L	.
.	.	12e#\ 12ee#\	.
.	.	12f#\ 12ff#\J	.
4A\ 4d#\ 4a\	4r	12r	.
.	.	12A#/L	.
.	.	12B/J	.
=49	=49	=49	=49
8EE/L	4e/ 4g#/	12c#\L	.
.	.	12c#\	.
8BB/J	.	.	.
.	.	12B\J	.
8E\L	4g#/ 4b/	12f#\L	.
.	.	12f#\	.
8B\J	.	.	.
.	.	12e\J	.
8e\L	4b/	12a\L	.
.	.	12a\	.
[8dn\J	.	.	.
.	.	12g#\J	.
4E\ 4d\] 4g#\	4gg#/	12cc#\ 12ccc#\L	.
.	.	12cc#\ 12ccc#\	.
.	.	12b\ 12bb\J	.
=50	=50	=50	=50
4AAA/ 4AA/	12c#\L	4e/ 4f#/	.
.	12c#\	.	.
.	12F#\J	.	.
4F#\ 4c#\ 4e\	12b\ 12bb\L	4ee/	.
.	12b\ 12bb\	.	.
.	12a\ 12aa\J	.	.
4BBB/ 4BB/	12B\L	4d#/ 4g#/	.
.	12B\	.	.
.	12A\J	.	.
4A\ 4d#\ 4b\	12g#\ 12gg#\L	4dd#/	.
.	12g#\ 12gg#\	.	.
.	12f#\ 12ff#\J	.	.
=51	=51	=51	=51
8EE/L	4e/ 4g#/	12c#\L	.
.	.	12c#\	.
8BB/J	.	.	.
.	.	12B\J	.
8E\L	4g#/ 4b/	12f#\L	.
.	.	12f#\	.
8B\J	.	.	.
.	.	12e\J	.
8e\L	4b/ 4ee/	12a\L	.
.	.	12a\	.
[8dn\J	.	.	.
.	.	12g#\J	.
4E\ 4d\] 4g#\	4gg#/	12cc#\ 12ccc#\L	.
.	.	12cc#\ 12ccc#\	.
.	.	12b\ 12bb\J	.
=52	=52	=52	=52
4AAA/ 4AA/	12c#\L	4e/ 4f#/	.
.	12c#\	.	.
.	12F#\J	.	.
4F#\ 4c#\ 4e\	12b\ 12bb\L	4ee/	.
.	12b\ 12bb\	.	.
.	12a\ 12aa\J	.	.
4BBB/ 4BB/	12B\L	4d#/ 4g#/	.
.	12B\	.	.
.	12A\J	.	.
4A\ 4d#\ 4b\	12g#\ 12gg#\L	4dd#/	.
.	12g#\ 12gg#\	.	.
.	12f#\ 12ff#\J	.	.
*	*v	*v	*
=53	=53	=53
4EE/ 4BB/	12G#/ 12e/ 12g#/	.
.	12e/ 12ee/L	.
.	12e/ 12ee/J	.
4BB\ 4G#\ 4e\	12g#/ 12gg#/L	.
.	12d#/ 12dd#/	.
.	12d#/ 12dd#/J	.
4AA#\ 4G#\ 4e\	12g#/ 12gg#/L	.
.	12c#/ 12cc#/	.
.	12c#/ 12cc#/J	.
4r	12c#/ 12cc#/L	.
.	12d#/ 12dd#/	.
.	12e/ 12ee/J	.
=54	=54	=54
4EE/ 4BB/	12g#/ 12gg#/L	.
.	12e/ 12ee/	.
.	12e/ 12ee/J	.
4BB\ 4G#\ 4e\	12g#/ 12gg#/L	.
.	12d#/ 12dd#/	.
.	12d#/ 12dd#/J	.
4AA#\ 4G#\ 4e\	12g#/ 12gg#/L	.
.	12c#/ 12cc#/	.
.	12c#/ 12cc#/J	.
4r	12c#/ 12cc#/L	.
.	12d#/ 12dd#/	.
.	12e/ 12ee/J	.
=55	=55	=55
*	*^	*
8EE/L	4e/ 4g#/	12c#\L	.
.	.	12c#\	.
8BB/	.	.	.
.	.	12B\J	.
8E/	4g#/	12f#\L	.
.	.	12f#\	.
8B/J	.	.	.
.	.	12e\J	.
8e\L	4b/	12a\L	.
.	.	12a\	.
8B\	.	.	.
.	.	12g#\J	.
8E\	4ee/ 4gg#/	12cc#\L	.
.	.	12cc#\	.
8B\J	.	.	.
.	.	12b\J	.
*clefG2	*	*	*
=56	=56	=56	=56
8e/L	4g#/ 4b/	12f#\L	.
.	.	12f#\	.
8b/	.	.	.
.	.	12e\J	.
8ee/	4b/	12a\L	.
.	.	12a\	.
8b/J	.	.	.
.	.	12g#\J	.
8e\L	4ee/ 4gg#/	12cc#\L	.
.	.	12cc#\	.
8b\	.	.	.
.	.	12b\J	.
8ee\	4gg#/ 4bb/	12ff#\L	.
.	.	12ff#\	.
[8bb\J	.	.	.
.	.	12ee\J	.
*	*v	*v	*
=57	=57	=57
4ee\ 4bb\]	4gg#\ 4eee\	.
4r	4r	.
*clefF4	*	*
2E\ 2B\ 2e\	2g#\ 2ee\ 2gg#\	.
=58	=58	=58
1EE 1BB 1E	1G# 1B 1e	.
==	==	==
*-	*-	*-
